X: 813
T: Gelmiş Değil Böyle Peri
C: Şakir Ağa
O: Turkey
F: http://compmusic.upf.edu/node/140
N: saba--tavsanca--semai--gelmis_degil--sakir_aga
N: makam= saba
N: form= tavsanca
N: usul= semai = 3/4
M: 3/4
L: 1/16
K: C _2/4B _3/4d  
Q: 1/4=144
%%MIDI tuningsystem comma53
A4 G2  | A4 B2  | cd c2 B2  | c2 d2 e2  | c4 B2  | \
w:  ARANAĞME  |   |   |   |   | 
A4 B2  | c6  | c4 z2  | A4 G2  | A4 B2  | 
w:   |   |   |   |   | 
cd c2 B2  | c2 d2 e2  | c4 A2  | B4 G2  | A6  | \
w:   |   |   |   |   | 
A4 z2  | A4 G2  | A4 B2  | cd c2 B2  | 
w:   |  Gel  |  miş  de  |  ğil   | 
c2 d2 e2  | f2 e2 d2  | d2 c2 B2  | cd c2 B2  | \
w:   |  böy  |  le  *  pe  |  ri    | 
_1/4d4 z2  | A4 G2  | A4 B2  | cd c2 B2  | 
w:   |  Hiç   |  gör me  |  dim   | 
c2 d2 e2  | c4 A2  | B4 G2  | A6  | A4 z2  | A4 G2  | \
w:   |  çok  |  tan  be  |  ri    |   |  Gel  | 
A4 B2  | cd c2 B2  | c2 d2 e2  | 
w:  miş  de  |  ğil   |   | 
f2 e2 d2  | d2 c2 B2  | cd c2 B2  | _1/4d4 z2  | \
w:  böy  |  le  *  pe  |  ri    |   | 
A4 G2  | A4 B2  | cd c2 B2  | c2 d2 e2  | 
w:  Hiç   |  gör me  |  dim   |   | 
c4 A2  | B4 G2  | A6  | e6  | e4 =d2  | e4 ^3/4f2  | \
w:  çok  |  tan  be  |  ri    |  SAZ  |  Ol  |  sam  ne   | 
ga g2 ^3/4f2  | a2 g2 f2  | e4 d2  | d2 c2 B2  | 
w:  var   |   |  ben   |  müş *  te  | 
cd c2 B2  | _1/4d4 z2  | A4 G2  | A4 B2  | \
w:  ri    |   |  Hiç   |  gör me  | 
cd c2 B2  | c2 d2 e2  | c4 A2  | B4 G2  | 
w:  dim   |   |  çok  |  tan  be  | 
A6  | e6  | e4 =d2  | e4 ^3/4f2  | ga g2 ^3/4f2  | \
w:  ri    |  SAZ  |  Ol  |  sam  ne   |  var   | 
a2 g2 f2  | e4 d2  | d2 c2 B2  | cd c2 B2  | 
w:   |  ben   |  müş *  te  |  ri    | 
_1/4d4 z2  | A4 G2  | A4 B2  | cd c2 B2  | \
w:   |  Hiç   |  gör me  |  dim   | 
c2 d2 e2  | c4 A2  | B4 G2  | A6  | A4 z2  | A4 G2  | 
w:   |  çok  |  tan  be  |  ri    |   |  ARANAĞME  | 
A4 B2  | cd c2 B2  | c2 d2 e2  | c4 B2  | A4 B2  | c6  | \
w:   |   |   |   |   |   | 
c4 z2  | A4 G2  | A4 B2  | cd c2 B2  | 
w:   |   |   |   | 
c2 d2 e2  | c4 A2  | B4 G2  | A6  | A4 z2  | A4 G2  | \
w:   |   |   |   |   |  Gel  | 
A4 B2  | cd c2 B2  | c2 d2 e2  | 
w:  miş  de  |  ğil   |   | 
f2 e2 d2  | d2 c2 B2  | cd c2 B2  | _1/4d4 z2  | \
w:  böy  |  le  *  pe  |  ri    |   | 
A4 G2  | A4 B2  | cd c2 B2  | c2 d2 e2  | 
w:  Hiç   |  gör me  |  dim   |   | 
c4 A2  | B4 G2  | A6  | A4 z2  | A4 G2  | A4 B2  | \
w:  çok  |  tan  be  |  ri    |   |  Gel  |  miş  de  | 
cd c2 B2  | c2 d2 e2  | f2 e2 d2  | 
w:  ğil   |   |  böy  | 
d2 c2 B2  | cd c2 B2  | _1/4d4 z2  | A4 G2  | \
w:  le  *  pe  |  ri    |   |  Hiç   | 
A4 B2  | cd c2 B2  | c2 d2 e2  | c4 A2  | 
w:  gör me  |  dim   |   |  çok  | 
B4 G2  | A6  | e6  | e4 =d2  | e4 ^3/4f2  | ga g2 ^3/4f2  | \
w:  tan  be  |  ri    |  SAZ  |  Ol  |  sam  ne   |  var   | 
a2 g2 f2  | e4 d2  | d2 c2 B2  | cd c2 B2  | 
w:   |  ben   |  müş *  te  |  ri    | 
_1/4d4 z2  | A4 G2  | A4 B2  | cd c2 B2  | \
w:   |  Hiç   |  gör me  |  dim   | 
c2 d2 e2  | c4 A2  | B4 G2  | A6  | e6  | e4 =d2  | 
w:   |  çok  |  tan  be  |  ri    |  SAZ  |  Ol  | 
e4 ^3/4f2  | ga g2 ^3/4f2  | a2 g2 f2  | \
w:  sam  ne   |  var   |   | 
e4 d2  | d2 c2 B2  | cd c2 B2  | _1/4d4 z2  | \
w:  ben   |  müş *  te  |  ri    |   | 
A4 G2  | 
w:  Hiç   | 
A4 B2  | cd c2 B2  | c2 d2 e2  | c4 A2  | B4 G2  | A6  | \
w:  gör me  |  dim   |   |  çok  |  tan  be  |  ri    | 
A4 z2  | |


